icons/light/root-folder-expanded.svg

<svg width="16" height="16" viewBox="0 0 16 16" fill="none" xmlns="http://www.w3.org/2000/svg">
<path fill-rule="evenodd" clip-rule="evenodd" d="M13 3.5V6H15.151L15.634 6.629L13 13.629L12.516 14L8.74284 14C8.99647 13.6929 9.2174 13.3578 9.4003 13L12.133 13L14.5 7H8.74284C8.52467 6.73583 8.2823 6.49238 8.01914 6.27304L8.14602 6.146L8.50002 6H12V4H6.5L6.146 3.854L5.293 3H1V6.25716C0.62057 6.57052 0.283885 6.93379 0 7.33692V2.5L0.5 2H5.5L5.854 2.146L6.707 3H12.5L13 3.5Z" fill="#424242"/>
<path d="M6 10.5C6 11.3284 5.32843 12 4.5 12C3.67157 12 3 11.3284 3 10.5C3 9.67157 3.67157 9 4.5 9C5.32843 9 6 9.67157 6 10.5Z" fill="#C4C4C4"/>
<path fill-rule="evenodd" clip-rule="evenodd" d="M8 10.5C8 12.433 6.433 14 4.5 14C2.567 14 1 12.433 1 10.5C1 8.567 2.567 7 4.5 7C6.433 7 8 8.567 8 10.5ZM4.5 13C5.88071 13 7 11.8807 7 10.5C7 9.11929 5.88071 8 4.5 8C3.11929 8 2 9.11929 2 10.5C2 11.8807 3.11929 13 4.5 13Z" fill="#C4C4C4"/>
</svg>

<svg xmlns="http://www.w3.org/2000/svg" width="16" height="16" fill="#424242" xmlns:v="https://vecta.io/nano"><path fill-rule="evenodd" d="M13 3.5V6h2.151l.483.629-2.634 7-.484.371H8.743c.254-.307.475-.642.657-1h2.733L14.5 7H8.743c-.218-.264-.461-.508-.724-.727l.127-.127L8.5 6H12V4H6.5l-.354-.146L5.293 3H1v3.257a5.53 5.53 0 0 0-1 1.08V2.5L.5 2h5l.354.146.853.854H12.5l.5.5z"/><path d="M6 10.5a1.5 1.5 0 1 1-3 0 1.5 1.5 0 1 1 3 0z"/><path fill-rule="evenodd" d="M8 10.5a3.5 3.5 0 1 1-7 0 3.5 3.5 0 1 1 7 0zM4.5 13a2.5 2.5 0 1 0 0-5 2.5 2.5 0 1 0 0 5z"/></svg>
